X:1
T:Regina coeli - Gounod
T:James Gibb editions
T:#
%%score [ 1 2 ] { ( 3 4 ) | ( 5 6 ) }
L:1/8
Q:1/4=90
M:4/4
K:Bb
V:1 treble nm="Soprano" snm="S"
V:2 treble nm="Alto" snm="A"
V:3 treble nm="Accomp."
V:4 treble 
V:5 bass 
V:6 bass 
V:1
"^allo religioso""^Regina coeli""^Charles Gounod\n ( 1818-93 )" z8 | z8 | z8 | z4 z2 B2 | B4 c4 | %5
w: |||Re-|gi- na|
 (B2 AG) F2 B2 | c4 d2 (dc) |[M:4/4] (B2 c2) B2 f2 | d3 c B2 c2 | (B2 A)G F2 B2 | B4 c4 | %11
w: coe\- * * li, lae-|ta- re, lae\- *|ta\- * re al-|le- lu- ia, al-|le\- * lu- ia. Re-|gi- na|
 (B2 AG) F2 B2 | c4 d2 B2 | (e2 d2) c2 f2 | f3 B B2 (cd) | c6- cB | B4 ||!p! B2 F2 G2 BA | %18
w: coe\- * * li, lae-|ta- re, lae-|ta\- * re, al-|le- lu- ia, al\- *|le\- * lu-|ia.|Qui- a quem me- ru-|
 G4 F2 d2 | c4 B2!f! cd | e4 e2 ee | e2 d2 B2 c2 | (c3 d) c2 c2 | c3 d d2 e2 | (d2 c)B c2 B2 | %25
w: i- sti por-|ta- re. Re- sur-|re- xit, re- sur-|re- xit si- cut|di\- * xit, al-|le- lu- ia, al-|le\- * lu- ia. Re-|
 B4 c4 | (B2 AG) F2 B2 | c4 d2 B2 | (e2 d2) c2 f2 | f3 B B2 (cd) | c6- cB | B4 || %32
w: gi- na|coe\- * * li, lae-|ta- re, lae-|ta\- * re, al-|le- lu- ia, al\- *|le\- * lu-|ia.|
[K:Eb]!p! B4 B2 B2 | B4 B2 B2 | (B2 =B2) (c2 d2) | (c2 _BA) B2 z2 | B4 B2 B2 | B4 B2 B2 | %38
w: O- ra pro|no- bis, pro|no\- * bis, *|De\- * * um.|O- ra pro|no- bis, pro|
 (B2 =B2) c4 | _B8 | G2 z2 z2!f! B2 | B3 B B2 c2 | c3 c c2 c2 | (c4 d3) c | !fermata!c4 z2 B2 || %45
w: no\- * bis|De-|um. Al-|le- lu- ia, al-|le- lu- ia, al-|le\- * lu-|ia, Re-|
[K:Bb] B4 c4 | (B2 AG) F2 B2 | c4 d2 (dc) | (B2 c2) B2 f2 | d3 c B2 c2 | (B2 A)G F2 B2 | B4 c4 | %52
w: gi- na|coe\- * * li, lae-|ta- re, lae\- *|ta\- * re al-|le- lu- ja, al-|le\- * lu- ia. Re-|gi- na|
 (B2 AG) F2 B2 | c4 d2 B2 | (e2 d2) c2 f2 | f3 B B2 (cd) | c6- cB | B4 z2!f! d2 | d3 d d2 d2 | %59
w: coe\- * * li, lae-|ta- re, lae-|ta\- * re, al-|le- lu- ia, al\- *|le\- * lu-|ia. Al-|le- lu- ia, al-|
 d3 d d2 z2 | B4 c3 c | !fermata!B4 z4 |] %62
w: le- lu- ia,|al- le- lu-|ia.|
V:2
 z8 | z8 | z8 | z8 | z8 | z8 | z8 |[M:4/4] z8 | z8 | z4 z2 B2 | B4 E4 | F4 F2 B2 | A4 B2 G2 | %13
w: |||||||||Re-|gi- na|coe- li, lae-|ta- re, lae-|
 (c2 =B2) c2 A2 | A3 B B2 A2 | A6- AB | B4 || z8 | z8 | z4 z2!f! cd | e4 e2 GG | G2 ^F2 G2 =E2 | %22
w: ta\- * re, al-|le- lu- ia, al-|le\- * lu-|ia.|||Re- sur-|re- xit, re- sur-|re- xit si- cut|
 F4 F2 A2 | A3 B B2 G2 | (B2 A)G A2 B2 | B4 E4 | F4 F2 B2 | A4 B2 G2 | (c2 =B2) c2 A2 | %29
w: di- xit, al-|le- lu- ia, al-|le\- * lu- ia. Re-|gi- na|coe- li, lae-|ta- re, lae-|ta\- * re, al-|
 A3 B B2 A2 | A6- AB | B4 ||[K:Eb] z8 | z8 | z8 | z8 | z8 | z8 | z8 | z8 | z4 z2!f! G2 | %41
w: le- lu- ia, al-|le\- * lu-|ia.|||||||||Al-|
 G3 G G2 E2 | E3 E E2 c2 | (=A4 B3) A | !fermata!=A4 z4 ||[K:Bb] z8 | z8 | z8 | z8 | z8 | %50
w: le- lu- ia, al-|le- lu- ia, al-|le\- * lu-|ia,||||||
 z4 z2 B2 | B4 E4 | F4 F2 B2 | A4 B2 G2 | (c2 =B2) c2 A2 | A3 B B2 A2 | A6- AB | B4 z2!f! B2 | %58
w: Re-|gi- na|coe- li, lae-|ta- re, lae-|ta\- * re, al-|le- lu- ia, al-|le\- * lu-|ia. Al-|
 B3 B B2 B2 | B3 B B2 z2 | B4 A3 A | !fermata!B4 z4 |] %62
w: le- lu- ia, al-|le- lu- ia,|al- le- lu-|ia.|
V:3
 x8 | B2 e2 d2 Bc | [Fd]4 [Ec]4 | [DB]4 z2 x2 | [DFB]4 [CGc]4 | B2 AG F2 [FB]2 | %6
 [FAc]4- [FBd]2 [D^FA]2 |[M:4/4] [DGB]2 [EAc]2 [DB]2 [Fcf]2 | [FBd]3 [EAc] [DGB]2 [CGc]2 | %9
 B2 AG [A,F]2 B2 | [DFB]4 [CGc]4 | B2 AG F2 [FB]2 | [FAc]4- [FBd]2 [GB]2- | %13
 [Gce]2 [F=Bd]2 [Ec]2 [Af]2 | [Af]3 [GB] [GB]2 cd | [EAc]6- [EAc][DB] | [DB]4 || %17
!p! B2 F2 [EG]2 [GB][FA] | [EG]4 [DF]2 [Bd]2 | [Ac]4 [GB]2!f! cd | [Ge]6 [Ge]2 | %21
 [Ge]2 [^Fd]2 [GB]2 [=Ec]2 | c3 d c2 [FAc]2 | [FAc]3 [FBd] [FBd]2 [GBe]2 | %24
 [Bd]2 [Ac][GB] [Ac]2 B2 | [DFB]4 [CGc]4 | B2 AG F2 [FB]2 | [FAc]4- [FBd]2 [GB]2- | %28
 [Gce]2 [F=Bd]2 [Ec]2 [Af]2 | [Af]3 [GB] [GB]2 cd | [EAc]6- [EAc][DB] | [DB]4 ||[K:Eb]!p! B8- | %33
 B8 | B2 =B2 c2 d2 | c2 _BA B2 z2 | B8- | B8 | B2 =B2 c4 | _B8 | [EB]4 z2!f! [EGB]2 | %41
 [EGB]3 [EGB] [EGB]2 [EGc]2 | [EGc]3 [EGc] [EGc]2 [EGc]2 | [F=Ac]4 [FBd]3 [FAc] | %44
 !fermata![F=Ac]4 z2 B2 ||[K:Bb] [DFB]4 [CGc]4 | B2 AG F2 [FB]2 | [FAc]4- [FBd]2 [D^FA]2 | %48
 [DGB]2 [EAc]2 [DB]2 [Fcf]2 | [FBd]3 [EAc] [DGB]2 [CGc]2 | B2 AG [A,F]2 B2 | [DFB]4 [CGc]4 | %52
 B2 AG F2 [FB]2 | [FAc]4- [FBd]2 [GB]2- | [Gce]2 [F=Bd]2 [Ec]2 [Af]2 | [Af]3 [GB] [GB]2 cd | %56
 [EAc]6- [EAc][DB] | [DB]4 z2!f! [FBd]2 | [FBd]3 [FBd] [FBd]2 [FBd]2 | [FBd]3 [FBd] [FBd]2 z2 | %60
 [GB]4 [EAc]4 | !fermata![DB]4 z4 |] %62
V:4
 [Bd]4 [Af]4 | G2 F4 G2 | x8 | x6 B2 | x8 | [CF]4- C2 x2 | x8 |[M:4/4] x8 | x8 | [CF]3 [B,=E] x4 | %10
 x8 | [CF]4- C2 x2 | x8 | x8 | x6 A2 | x8 | x4 || D4 x4 | x8 | x6 _A2 | x8 | x8 | F6 x2 | x8 | %24
 F6 x2 | x8 | [CF]4- C2 x2 | x8 | x8 | x6 A2 | x8 | x4 ||[K:Eb] E4 D2 F2 | E4 D2 F2 | E8- | E6 z2 | %36
 F4 E2 D2 | F4 E2 D2 | E8- | E4 F2 D2 | x8 | x8 | x8 | x8 | x8 ||[K:Bb] x8 | [CF]4- C2 x2 | x8 | %48
 x8 | x8 | [CF]3 [B,=E] x4 | x8 | [CF]4- C2 z2 | x8 | x8 | x6 A2 | x8 | x4 x4 | x8 | x8 | x8 | %61
 x8 |] %62
V:5
 x8 | B,2 A,2 B,4- | B,6 A,2 | x8 | x8 | x8 | x8 |[M:4/4] x8 | x8 | F,6 B,2 | B,4 E,4 | F,6 D,2 | %12
 F,4 B,2 E,D, | C,2 G,2 C2 [F,C]2 | [F,C]3 [G,B,] [G,B,]2 [F,E]2 | F,6- F,B,, | B,,4 ||!p! B,8- | %18
 B,6 [B,F]2 | [F,E]4 [G,D]2!f! [F,B,]2 | [E,B,]6 [E,B,]2 | x8 | A,3 B, A,2 x2 | x8 | x8 | B,4 E,4 | %26
 F,6 D,2 | F,4 B,2 E,D, | C,2 G,2 C2 [F,C]2 | [F,C]3 [G,B,] [G,B,]2 [F,E]2 | F,6- F,B,, | B,,4 || %32
[K:Eb]!p! G,4 F,2 A,2 | G,4 F,2 A,2 | G,4 A,2 B,2 | A,2 G,F, G,2 x2 | A,4 G,2 F,2 | A,4 G,2 F,2 | %38
 E,6 F,2 | G,4 A,2 F,2 | x8 | x8 | x8 | x8 | x8 ||[K:Bb] x8 | x8 | x8 | x8 | x8 | F,6 B,2 | %51
 B,4 E,4 | F,6 D,2 | F,4 B,2 E,D, | C,2 G,2 C2 [F,C]2 | [F,C]3 [G,B,] [G,B,]2 [F,E]2 | F,6- F,B,, | %57
 B,,4 z2 [B,D]2 | [B,D]3 [B,D] [B,D]2 [B,D]2 | [B,D]3 [B,D] [B,D]2 z2 | [G,D]4 F,4- | %61
 [B,,F,]4 z4 |] %62
V:6
 [B,D]4 [F,C]4 | G,2 C,2 D,2 E,2 | F,8 | [B,,B,]4 z2 B,2 | B,4 E,4 | F,6 D,2 | F,4 B,2 D,2 | %7
[M:4/4] G,2 F,2 B,2 A,2 | B,3 F, G,2 E,2 | x8 | x8 | x8 | x8 | x8 | x8 | x8 | x4 || x8 | x8 | x8 | %20
 x8 | [C,C]2 [D,A,]2 [G,B,]2 [C,G,]2 | F,6 F,2 | F,3 B, B,2 E,2 | F,6 B,2 | x8 | x8 | x8 | x8 | %29
 x8 | x8 | x4 ||[K:Eb] E,8- | E,8 | E,8 | E,6 G,E, | B,,8- | B,,6 A,,2 | G,,4 A,,2 =A,,2 | B,,8 | %40
 [E,G,]4 z2 [E,G,B,]2 | [E,G,B,]3 [E,G,B,] [E,G,B,]2 [C,G,C]2 | %42
 [C,G,C]3 [C,G,C] [C,G,C]2 [C,G,C]2 | [F,C]4 [B,D]3 [F,C] | [F,C]4 z2 B,2 ||[K:Bb] B,4 E,4 | %46
 F,6 D,2 | F,4 B,2 D,2 | G,2 F,2 B,2 A,2 | B,3 F, G,2 E,2 | x8 | x8 | x8 | x8 | x8 | x8 | x8 | x8 | %58
 x8 | x8 | x8 | x8 |] %62

